X:1
T:Title
%%score 1 { ( 2 4 ) | ( 3 5 6 ) }
L:1/8
M:4/4
K:Ab
V:1 treble nm="Choir Aahs"
V:2 treble nm="Grand Piano"
V:4 treble 
V:3 bass 
V:5 bass 
V:6 bass 
V:1
 z4 z2[Q:1/4=92] E>E | A<A A>B A<E E>E | A>A G<B A2 A>B | c>c B>A E<E A>A | B6 E>E | %5
 A>A A>B A<E E>E |[M:9/8] B>Bc- c/c/ d2- dc>B |[M:4/4] A>A A<c c<B E>E |[M:3/4] A6 | %9
[M:1/4][Q:1/4=100] z2 |[M:4/4] z8 | z8 | z8 |[M:7/8] z7 |[M:1/4] z2 |[M:4/4] z8 |[M:9/8] z9 | %17
[M:35/32] z35/4 |[M:3/4] z6 |] %19
V:2
 z4 z2 E>E | A<A A>B A<E E>E | A>A [=DEG]<[EGB] [A,CEA]2 A>B | c>c B>A .[A,CE]2 [A,A]>[A,A] | %4
 GAF_G =G2 E>E | A2 z2 .A2 z2 | %6
[M:9/8] [DFB]>[FB][EF=Ac]- [EFAc]/[FAc]/ [DFBd]2- [DFBd][EFAc]>[DFB] | %7
[M:4/4] [CEA]>[EA] [CEA]<[EAc] [DGc]<B E>E |[M:3/4] [CEA]A AA A2 |[M:1/4] E>E |[M:4/4] A6 z2 | %11
 c6 z2 | [CA]>[CE] [CA]>[Ec] [=DB]<[DF] [DB]>[Dc] |[M:7/8] B-B-B- B- B3 |[M:1/4] E>E | %15
[M:4/4] A6 z2 |[M:9/8] e6- e z z |[M:35/32] c>Ed>cc/ B2- B/(3:2:4E3/2-E/4E3/4-E/8 |[M:3/4] [CA]6 |] %19
V:3
 z8 | z2 =D2 z4 | [CE]>[CE] z/ =D3/2 A,,2 C>D | A,2 [F,D]2 z/ E3/2 C,>C, | [E,,E,]6 D>D | %5
 z2 D2 z4 |[M:9/8] z z/ .D3/2 z/ E/ B,,2- B,,C,>D, |[M:4/4] z z/ C/ [E,,E,]2 z/ [DG]3/2 D>D | %8
[M:3/4] z [CE] [_C=D][CD] [=CE]2 |[M:1/4] z2 |[M:4/4] z2 [A,,A,]>[A,,A,] [A,,A,]2 z2 | %11
 z2 [A,,A,]>[A,,A,] [A,,A,]2 [A,,A,]>[A,,A,] | %12
 [A,,A,]>[A,,A,] [A,,A,]>[A,,A,] [B,,A,]<[B,,A,] [B,,A,]>[B,,A,] | %13
[M:7/8] [E,G,E]2 [F,A,]>[F,A,] [G,D]3 |[M:1/4] z2 | %15
[M:4/4] z2 [A,,A,]>[A,,A,] [A,,A,]2[K:treble] A>B |[M:9/8] c6- c z z | %17
[M:35/32] [A,EA]>[A,C][A,F]>[K:bass][A,E][E,A,E]/ [E,G,E]2- [E,G,E]/(3:2:4[E,G,D]3/2-[E,G,D]/4[E,G,D]3/4-[E,G,D]/8 | %18
[M:3/4] [A,,A,]6 |] %19
V:4
 x8 | C2 z2 C2 z2 | x8 | E2 z2 z4 | [DB]6 z2 | C->[CA] A>B C-<[CE] E>E |[M:9/8] x9 |[M:4/4] x8 | %8
[M:3/4] x6 |[M:1/4] x2 |[M:4/4] z2 C>C C2 A>B | z2 E>E E2 [Ec]>[DB] | x8 |[M:7/8] z2 =D>D E3 | %14
[M:1/4] x2 |[M:4/4] z2 C>C C2 c>d |[M:9/8] z2 E- E/E/ E2- EA>B |[M:35/32] x35/4 |[M:3/4] x6 |] %19
V:5
 x8 | E,2 F,>=E, _E,<A, [C,A,]2 | E,2 [E,,E,]2 z4 | A,,4 A,,2 z2 | z4 z2 [E,G,]2 | %5
 E,2 F,>F, E,<A, [C,A,]2 |[M:9/8] D,2 C,- C, z z z3 |[M:4/4] E,2 z2 [E,,E,]2 [E,G,]2 | %8
[M:3/4] [A,,A,]6 |[M:1/4] x2 |[M:4/4] x8 | x8 | x8 |[M:7/8] x7 |[M:1/4] x2 | %15
[M:4/4] x6[K:treble] x2 |[M:9/8] z2 A,- A,/A,/ A,2- A,[A,CE]>[A,DE] |[M:35/32] x7/2[K:bass] x21/4 | %18
[M:3/4] x6 |] %19
V:6
 x8 | A,,4 A,,2 z2 | x8 | x8 | x8 | A,,4 A,,4 |[M:9/8] x9 |[M:4/4] x8 |[M:3/4] x6 |[M:1/4] x2 | %10
[M:4/4] x8 | x8 | x8 |[M:7/8] x7 |[M:1/4] x2 |[M:4/4] x6[K:treble] x2 |[M:9/8] x9 | %17
[M:35/32] x7/2[K:bass] x21/4 |[M:3/4] x6 |] %19

